svgs/thin/bread-loaf.svg

<svg xmlns="http://www.w3.org/2000/svg" viewBox="0 0 640 512"><!-- Font Awesome Pro 6.0.0-alpha2 by @fontawesome - https://fontawesome.com License - https://fontawesome.com/license (Commercial License) --><path d="M400 32C397.91 32 242.396 32 240 32C107.5 32 0 103.625 0 192C0 227.375 26.875 256 60 256H64V448C64 465.625 78.375 480 96 480H544C561.625 480 576 465.625 576 448V256H580C613.125 256 640 227.375 640 192C640 103.625 532.5 32 400 32ZM96 464C87.178 464 80 456.822 80 448V240H60C35.738 240 16 218.467 16 192C16 112.598 116.486 48 240 48S464 112.598 464 192C464 218.467 444.262 240 420 240H400V448C400 456.822 392.822 464 384 464H96ZM580 240H560V448C560 456.822 552.822 464 544 464H411.072C413.92 459.219 416 453.949 416 448V256H420C453.125 256 480 227.375 480 192C480 128.529 424.41 73.861 344.072 48H384V48.025L400 48C523.514 48 624 112.598 624 192C624 218.467 604.262 240 580 240Z"/></svg>

<svg xmlns="http://www.w3.org/2000/svg" viewBox="0 0 640 512"><!--! Font Awesome Pro 6.0.0-alpha3 by @fontawesome - https://fontawesome.com License - https://fontawesome.com/license (Commercial License) --><path d="M400 32h-160C107.5 32 0 103.6 0 192c0 35.38 26.88 64 60 64H64v192c0 17.62 14.38 32 32 32h448c17.62 0 32-14.38 32-32V256h4C613.1 256 640 227.4 640 192C640 103.6 532.5 32 400 32zM96 464c-8.822 0-16-7.178-16-16V240H60C35.74 240 16 218.5 16 192c0-79.4 100.5-144 224-144s224 64.6 224 144c0 26.47-19.74 48-44 48H400V448c0 8.822-7.178 16-16 16H96zM580 240H560V448c0 8.822-7.178 16-16 16h-132.9C413.9 459.2 416 453.9 416 448V256h4C453.1 256 480 227.4 480 192c0-63.47-55.59-118.1-135.9-144H400c123.5 0 224 64.6 224 144C624 218.5 604.3 240 580 240z"/></svg>
